Icons/com_google_android_apps_ads_publisher.svg

<svg viewBox="0 0 48 48" xmlns:xlink="http://www.w3.org/1999/xlink">
 <defs>
  <linearGradient id="0">
   <stop stop-opacity="0"/>
   <stop offset="1"/>
  </linearGradient>
  <linearGradient xlink:href="#0" id="1" gradientUnits="userSpaceOnUse" gradientTransform="translate(4e-7,-48)" y1="47" x2="0" y2="1"/>
  <clipPath id="2">
   <g transform="translate(0,-1004.3622)">
    <rect rx="4" y="1005.36" x="1" height="46" width="46" fill="#1890d0"/>
   </g>
  </clipPath>
  <clipPath id="3">
   <g transform="translate(0,-1004.3622)">
    <rect rx="4" y="1005.36" x="1" height="46" width="46" fill="#1890d0"/>
   </g>
  </clipPath>
 </defs>
 <g>
  <g transform="translate(0,-1004.3622)">
   <path d="m 5,1006.3622 c -2.216,0 -4,1.784 -4,4 l 0,37.25 c 0,2.216 1.784,4 4,4 l 38,0 c 2.216,0 4,-1.784 4,-4 l 0,-37.25 c 0,-2.216 -1.784,-4 -4,-4 l -38,0 z m -4,41.5 0,0.5 c 0,2.216 1.784,4 4,4 l 38,0 c 2.216,0 4,-1.784 4,-4 l 0,-0.5 c 0,2.216 -1.784,4 -4,4 l -38,0 c -2.216,0 -4,-1.784 -4,-4 z" opacity="0.02"/>
   <path d="m 1,1047.6122 0,0.25 c 0,2.216 1.784,4 4,4 l 38,0 c 2.216,0 4,-1.784 4,-4 l 0,-0.25 c 0,2.216 -1.784,4 -4,4 l -38,0 c -2.216,0 -4,-1.784 -4,-4 z" opacity="0.05"/>
   <rect width="46" height="46" x="1" y="1005.61" rx="4" opacity="0.1"/>
  </g>
 </g>
 <g>
  <g transform="translate(0,-1004.3622)">
   <rect rx="4" y="1005.36" x="1" height="46" width="46" fill="#ffb791"/>
  </g>
 </g>
 <g>
  <rect transform="scale(1,-1)" width="46" height="46" x="1" y="-46.998" rx="4" opacity="0.1" fill="url(#1)"/>
 </g>
 <g>
  <g clip-path="url(#2)">
   <g opacity="0.1">
    <g>
     <path d="M 13 11 L 35 11 C 36.109375 11 37 11.890625 37 13 L 37 35 C 37 36.109375 36.109375 37 35 37 L 13 37 C 11.890625 37 11 36.109375 11 35 L 11 13 C 11 11.890625 11.890625 11 13 11 Z M 13 11 "/>
     <path d="M 13 11 C 11.890625 11 11 11.59375 11 12.332031 L 11 15 L 37 15 L 37 12.332031 C 37 11.59375 36.109375 11 35 11 Z M 13 11 "/>
     <path d="M 13 16.996094 L 35 16.996094 L 35 21.996094 L 13 21.996094 Z M 13 16.996094 "/>
     <path d="M 13 25.996094 L 24 25.996094 L 24 34.996094 L 13 34.996094 Z M 13 25.996094 "/>
     <path d="M 26 25.996094 L 35 25.996094 L 35 34.996094 L 26 34.996094 Z M 26 25.996094 "/>
     <path d="M 15 13 C 15 13.550781 14.550781 14 14 14 C 13.449219 14 13 13.550781 13 13 C 13 12.449219 13.449219 12 14 12 C 14.550781 12 15 12.449219 15 13 Z M 15 13 "/>
     <path d="M 19 13 C 19 13.550781 18.550781 14 18 14 C 17.449219 14 17 13.550781 17 13 C 17 12.449219 17.449219 12 18 12 C 18.550781 12 19 12.449219 19 13 Z M 19 13 "/>
    </g>
   </g>
  </g>
 </g>
 <g>
  <g clip-path="url(#3)">
   <g transform="translate(0,-1)">
    <g>
     <path d="M 13 11 L 35 11 C 36.109375 11 37 11.890625 37 13 L 37 35 C 37 36.109375 36.109375 37 35 37 L 13 37 C 11.890625 37 11 36.109375 11 35 L 11 13 C 11 11.890625 11.890625 11 13 11 Z M 13 11 " fill="#f9f9f9"/>
     <path d="M 13 11 C 11.890625 11 11 11.59375 11 12.332031 L 11 15 L 37 15 L 37 12.332031 C 37 11.59375 36.109375 11 35 11 Z M 13 11 " fill="#4285f4"/>
     <path d="M 13 16.996094 L 35 16.996094 L 35 21.996094 L 13 21.996094 Z M 13 16.996094 " fill="#d0d0d0"/>
     <path d="M 13 25.996094 L 24 25.996094 L 24 34.996094 L 13 34.996094 Z M 13 25.996094 " fill="#d0d0d0"/>
     <path d="M 26 25.996094 L 35 25.996094 L 35 34.996094 L 26 34.996094 Z M 26 25.996094 " fill="#33b478"/>
     <path d="M 15 13 C 15 13.550781 14.550781 14 14 14 C 13.449219 14 13 13.550781 13 13 C 13 12.449219 13.449219 12 14 12 C 14.550781 12 15 12.449219 15 13 Z M 15 13 " fill="#f9f9f9"/>
     <path d="M 19 13 C 19 13.550781 18.550781 14 18 14 C 17.449219 14 17 13.550781 17 13 C 17 12.449219 17.449219 12 18 12 C 18.550781 12 19 12.449219 19 13 Z M 19 13 " fill="#f9f9f9"/>
    </g>
   </g>
  </g>
 </g>
 <g>
  <g transform="translate(0,-1004.3622)">
   <path d="m 1,1043.3622 0,4 c 0,2.216 1.784,4 4,4 l 38,0 c 2.216,0 4,-1.784 4,-4 l 0,-4 c 0,2.216 -1.784,4 -4,4 l -38,0 c -2.216,0 -4,-1.784 -4,-4 z" opacity="0.1"/>
  </g>
 </g>
</svg>

<svg viewBox="0 0 48 48"><defs><linearGradient id="linearGradient3764" x1="1" x2="47" gradientUnits="userSpaceOnUse" gradientTransform="translate(-48.000001,0.00221467)"><stop stop-color="#ffab7d" stop-opacity="1"/><stop offset="1" stop-color="#ffb791" stop-opacity="1"/></linearGradient><clipPath id="clipPath-010840529"><g transform="translate(0,-1004.3622)"><rect rx="4" y="1005.36" x="1" height="46" width="46" fill="#1890d0"/></g></clipPath><clipPath id="clipPath-023592772"><g transform="translate(0,-1004.3622)"><rect rx="4" y="1005.36" x="1" height="46" width="46" fill="#1890d0"/></g></clipPath></defs><g><path d="m 1 43 l 0 0.25 c 0 2.216 1.784 4 4 4 l 38 0 c 2.216 0 4 -1.784 4 -4 l 0 -0.25 c 0 2.216 -1.784 4 -4 4 l -38 0 c -2.216 0 -4 -1.784 -4 -4 z m 0 0.5 l 0 0.5 c 0 2.216 1.784 4 4 4 l 38 0 c 2.216 0 4 -1.784 4 -4 l 0 -0.5 c 0 2.216 -1.784 4 -4 4 l -38 0 c -2.216 0 -4 -1.784 -4 -4 z" opacity="0.02"/><path d="m 1 43.25 l 0 0.25 c 0 2.216 1.784 4 4 4 l 38 0 c 2.216 0 4 -1.784 4 -4 l 0 -0.25 c 0 2.216 -1.784 4 -4 4 l -38 0 c -2.216 0 -4 -1.784 -4 -4 z" opacity="0.05"/><path d="m 1 43 l 0 0.25 c 0 2.216 1.784 4 4 4 l 38 0 c 2.216 0 4 -1.784 4 -4 l 0 -0.25 c 0 2.216 -1.784 4 -4 4 l -38 0 c -2.216 0 -4 -1.784 -4 -4 z" opacity="0.1"/></g><g><rect width="46" height="46" x="-47" y="1" rx="4" transform="matrix(0,-1,1,0,0,0)" fill="url(#linearGradient3764)" fill-opacity="1"/></g><g><g clip-path="url(#clipPath-010840529)"><g opacity="0.1"><!-- color: #ffb791 --><g><path d="m 13 11 l 22 0 c 1.109 0 2 0.891 2 2 l 0 22 c 0 1.109 -0.891 2 -2 2 l -22 0 c -1.109 0 -2 -0.891 -2 -2 l 0 -22 c 0 -1.109 0.891 -2 2 -2 m 0 0" fill="#000"/><path d="m 13 11 c -1.109 0 -2 0.594 -2 1.332 l 0 2.668 l 26 0 l 0 -2.668 c 0 -0.738 -0.891 -1.332 -2 -1.332 m -22 0" fill="#000"/><path d="m 13 16.996 l 22 0 l 0 5 l -22 0 m 0 -5" fill="#000"/><path d="m 13 25.996 l 11 0 l 0 9 l -11 0 m 0 -9" fill="#000"/><path d="m 26 25.996 l 9 0 l 0 9 l -9 0 m 0 -9" fill="#000"/><path d="m 15 13 c 0 0.551 -0.449 1 -1 1 c -0.551 0 -1 -0.449 -1 -1 c 0 -0.551 0.449 -1 1 -1 c 0.551 0 1 0.449 1 1 m 0 0" fill="#000"/><path d="m 19 13 c 0 0.551 -0.449 1 -1 1 c -0.551 0 -1 -0.449 -1 -1 c 0 -0.551 0.449 -1 1 -1 c 0.551 0 1 0.449 1 1 m 0 0" fill="#000"/></g></g></g></g><g><g clip-path="url(#clipPath-023592772)"><g transform="translate(0,-1)"><!-- color: #ffb791 --><g><path d="m 13 11 l 22 0 c 1.109 0 2 0.891 2 2 l 0 22 c 0 1.109 -0.891 2 -2 2 l -22 0 c -1.109 0 -2 -0.891 -2 -2 l 0 -22 c 0 -1.109 0.891 -2 2 -2 m 0 0" fill="#f9f9f9"/><path d="m 13 11 c -1.109 0 -2 0.594 -2 1.332 l 0 2.668 l 26 0 l 0 -2.668 c 0 -0.738 -0.891 -1.332 -2 -1.332 m -22 0" fill="#4285f4"/><path d="m 13 16.996 l 22 0 l 0 5 l -22 0 m 0 -5" fill="#d0d0d0"/><path d="m 13 25.996 l 11 0 l 0 9 l -11 0 m 0 -9" fill="#d0d0d0"/><path d="m 26 25.996 l 9 0 l 0 9 l -9 0 m 0 -9" fill="#33b478"/><path d="m 15 13 c 0 0.551 -0.449 1 -1 1 c -0.551 0 -1 -0.449 -1 -1 c 0 -0.551 0.449 -1 1 -1 c 0.551 0 1 0.449 1 1 m 0 0" fill="#f9f9f9"/><path d="m 19 13 c 0 0.551 -0.449 1 -1 1 c -0.551 0 -1 -0.449 -1 -1 c 0 -0.551 0.449 -1 1 -1 c 0.551 0 1 0.449 1 1 m 0 0" fill="#f9f9f9"/></g></g></g></g><g><g transform="translate(0,-1004.3622)"><path d="m 1 1043.36 0 4 c 0 2.216 1.784 4 4 4 l 38 0 c 2.216 0 4 -1.784 4 -4 l 0 -4 c 0 2.216 -1.784 4 -4 4 l -38 0 c -2.216 0 -4 -1.784 -4 -4 z" opacity="0.1"/></g></g></svg>
